!!!COM: Palestrina, Giovanni Perluigi da
!!!OPR: Missa Sine nomine (Mantuan)
!!!OMD: Benedictus
!!!OTL: B.Hosanna
**kern	**kern	**kern	**kern
*Ibass	*Itenor	*Icalto	*Icant
!Bassus	!Tenor	!Altus	!Cantus
*clefF4	*clefGv2	*clefG2	*clefG2
*k[]	*k[]	*k[]	*k[]
*G:mix	*G:mix	*G:mix	*G:mix
*M3/2	*M3/2	*M3/2	*M3/2
=34	=34	=34	=34
2C	2c	2e	2g
2C	2c	2e	2g
2C	2c	2e	2g
=35	=35	=35	=35
1F	2c	2.f	2.a
.	1d	.	.
.	.	4g	4g
2D	.	4a	2f
.	.	4f	.
=36	=36	=36	=36
2E	1c	2g	2e
2F	.	2f	1d
2G	2B	2d	.
=37	=37	=37	=37
1C	1c	1.e	1c
2r	2r	.	2r
=38	=38	=38	=38
2G	2B	2r	2d
2F#	2A	2r	2d
2G	2B	2g	2d
=39	=39	=39	=39
2C	2.c	2g	2.e
2E	.	2g	.
.	4B	.	4d
2F	2A	2a	2c
=40	=40	=40	=40
2G	2d	1g	2B
1D	1d	.	1A
.	.	2f#	.
=41	=41	=41	=41
1G	1.B	1g	1G
2r	.	2r	2r
=42	=42	=42	=42
2c	1r	2e	2g
2B	.	2d	2g
2c	2r	2e	2g
=43	=43	=43	=43
1F	1r	2.f	2.a
.	.	4e	4g
2r	2r	2d	2f
=44	=44	=44	=44
2C	2g	1c	2e
2G	2g	.	1d
2G	2g	2B	.
=45	=45	=45	=45
2.A	2f	1c	1c
.	2e	.	.
4G	.	.	.
2F	2d	2r	2d
=46	=46	=46	=46
2E	1c	2c	2e
1D	.	2d	2f
.	2B	2d	2d
=47	=47	=47	=47
1C	2.c	2.e	2.g
.	4d	4d	4f
2r	4e	2c	2e
.	4f	.	.
=48	=48	=48	=48
1r	1g	2B	2d
.	.	1A	1c
2r	2f#	.	.
=49	=49	=49	=49
2G	1.g	2G	2d
2G	.	1B	2e
2G	.	.	2d
=50	=50	=50	=50
2.A	1r	2.c	2.f
4G	.	4B	4e
2F	2r	2A	2d
=51	=51	=51	=51
2E	2c	2G	1c
1D	1d	1F	.
.	.	.	2B
=52	=52	=52	=52
2C	2.e	2G	2c
2E	.	2r	2g
.	4d	.	.
2F	2c	2r	2a
=53	=53	=53	=53
2G	2B	2d	1g
1D	1A	2d	.
.	.	2d	2f#
=54	=54	=54	=54
2.C	2c	2.e	[1.g
.	1e	.	.
4D	.	4d	.
4E	.	2c	.
4F	.	.	.
=55	=55	=55	=55
2G	2d	2B	1.g]
1C	1c	1e	.
=56	=56	=56	=56
[1.G	[1.B	[1.d	[1.g
=57	=57	=57	=57
1.G]	1.B]	1.d]	1.g]
==	==	==	==
*-	*-	*-	*-
!!!CDT: 1525/^1526/-1594/2/2
!!!OCY: Italia
!!!AGN: Mass (Free)
!!!AST: renaissance, vocal
!!!ASW: Motet (Maffoni)
!!!PWK: Masses, Book Mantuan II
!!!RNB: Cadence finals: C
!!!YOR: Le Opere Complete, v. 19, p. 168
!!!YOO: Rome, Italy: Fratelli Scalera
!!!END: 1992//
!!!EED: John Miller
!!!YEC: Copyright 2000, John Miller
!!!YEN: United States of America
!!!YEM: Rights to all derivative electronic formats reserved.
!!!YEM: Refer to licensing agreement for further details.
!!!YEM: This file must be accompanied by the licensing agreement.
!!!YEM: A copy of the licensing agreement may be found at http://www.music-cog.ohio-state.edu/HumdrumDatabases/Palestrina/license.txt
!!!EMD: converted to Humdrum by Bret Aarden
